TF1/canv.svg

<svg xmlns="http://www.w3.org/2000/svg" viewBox="0 0 1196 572" preserveAspectRatio="none" width="1196" height="572">
 <path d="M0,0H1196V572H0Z" style="fill: white;"></path>
 <g>
  <g transform="translate(120,57)">
   <path d="M0,0H957V458H0Z" style="fill: white; stroke: black; stroke-width: 1;"></path>
   <svg x="0" y="0" overflow="hidden" width="957" height="458" viewBox="0 0 957 458">
    <g>
     <path d="M115,457h10M120,456v2M153,457h10M158,456v2M163,457h10M168,456v2M172,457h10M177,456v2M182,455h10M187,453v3M191,455h10M196,453v3M201,453h10M206,452v3M211,455h10M216,453v3M220,446h10M225,443v6M230,447h10M235,444v6M239,440h10M244,436v7M249,442h10M254,438v7M258,411h10M263,405v12M268,401h10M273,394v13M278,401h10M283,395v13M287,384h10M292,377v15M297,381h10M302,373v15M306,343h10M311,334v18M316,324h10M321,314v20M325,286h10M330,275v23M335,278h10M340,266v24M345,250h10M350,238v25M354,225h10M359,212v26M364,186h10M369,172v28M373,150h10M378,135v30M383,112h10M388,95v33M392,117h10M397,101v32M402,99h10M407,82v33M412,103h10M417,87v33M421,40h10M426,22v36M431,95h10M436,78v34M440,93h10M445,77v33M450,93h10M455,77v33M459,108h10M464,92v32M469,117h10M474,101v32M479,168h10M484,154v29M488,165h10M493,150v30M498,209h10M503,195v28M507,230h10M512,217v27M517,266h10M522,254v25M526,282h10M531,270v23M536,330h10M541,320v20M545,345h10M550,335v19M555,383h10M560,375v16M565,388h10M570,380v15M574,403h10M579,396v13M584,414h10M589,408v11M593,426h10M598,421v10M603,428h10M608,423v10M612,441h10M617,438v7M622,439h10M627,435v8M632,441h10M637,438v7M641,450h10M646,448v5M651,455h10M656,453v3M660,455h10M665,453v3M670,456h10M675,454v3M679,456h10M684,454v3M689,456h10M694,455v3M699,457h10M704,456v2M708,457h10M713,456v2M756,457h10M761,456v2" style="stroke: blue; stroke-width: 2;"></path>
    </g>
    <g>
     <path d="M5,458h10h9h10h9h10h9h10h10h9h10h9h10h9h10h10l9,-1h10h9l10,-1l9,-1l10,-1l10,-2l9,-3l10,-4l9,-5l10,-6l9,-8l10,-11l10,-12l9,-15l10,-18l9,-20l10,-23l9,-26l10,-27l10,-29l9,-30l10,-29l9,-28l10,-25l9,-22l10,-18l10,-12l9,-6l10,-1l9,6l10,11l9,17l10,21l10,25l9,28l10,29l9,29l10,29l9,28l10,26l9,23l10,21l10,18l9,16l10,13l9,10l10,9l9,6l10,5l10,4l9,3l10,2l9,2l10,1l9,1h10h10l9,1h10h9h10h9h10h10h9h10h9h10h9h10h10h9h10h9h10h9h10h10h9h10h9h10h9" style="fill: none; stroke: #9999cc; stroke-width: 3;"></path>
    </g>
    <g>
     <path d="M0,458h48v-2h9v2h20v-1h9v1h10v-1h9v1h10v-2h9v1h10v-1h38v-1h10v-5h9v1h10v-1h10v-2h9v-2h10v-2h9v5h10v-17h9v6h10v-13h10v-1h9v-1h10v-7h9v-5h10v-20h9v-6h10v-8h10v-12h9v3h10v-18h9v8h10v-30h9v-11h10v2h10v-28h9v-20h10v-15h9v20h10v8h9v-33h10v-19h10v-14h9v19h10v-21h9v26h10v-18h9v-11h10v15h9v11h10v-11h10v13h9v14h10v2h19v7h9v16h10v4h10v19h9v-1h10v32h9v2h10v-11h9v17h10v15h10v11h9v21h10v5h9v9h10v7h9v7h10v-3h10v13h9v-3h10v15h9v-2h10v1h9v-1h10v10h10v4h9v1h10v4h9v-2h19v-2h10v3h10v2h9v-1h48" style="stroke-linejoin: miter; stroke: red; stroke-width: 2; fill: none;"></path>
    </g>
   </svg>
   <g>
    <g transform="translate(0,458)">
     <path d="M0,0h957M0,-17V0M19,-9V0M38,-9V0M57,-9V0M77,-9V0M96,-17V0M115,-9V0M134,-9V0M153,-9V0M172,-9V0M191,-17V0M211,-9V0M230,-9V0M249,-9V0M268,-9V0M287,-17V0M306,-9V0M325,-9V0M345,-9V0M364,-9V0M383,-17V0M402,-9V0M421,-9V0M440,-9V0M459,-9V0M479,-17V0M498,-9V0M517,-9V0M536,-9V0M555,-9V0M574,-17V0M593,-9V0M612,-9V0M632,-9V0M651,-9V0M670,-17V0M689,-9V0M708,-9V0M727,-9V0M746,-9V0M766,-17V0M785,-9V0M804,-9V0M823,-9V0M842,-9V0M861,-17V0M880,-9V0M900,-9V0M919,-9V0M938,-9V0M957,-17V0" style="stroke: black; stroke-width: 1;"></path>
     <g font-family="Arial" font-size="20" space="preserve" fill="black" text-anchor="middle">
      <text dy=".8em" transform="translate(0,1)">
       -5
      </text>
      <text dy=".8em" transform="translate(96,1)">
       -4
      </text>
      <text dy=".8em" transform="translate(191,1)">
       -3
      </text>
      <text dy=".8em" transform="translate(287,1)">
       -2
      </text>
      <text dy=".8em" transform="translate(383,1)">
       -1
      </text>
      <text dy=".8em" transform="translate(479,1)">
       0
      </text>
      <text dy=".8em" transform="translate(574,1)">
       1
      </text>
      <text dy=".8em" transform="translate(670,1)">
       2
      </text>
      <text dy=".8em" transform="translate(766,1)">
       3
      </text>
      <text dy=".8em" transform="translate(861,1)">
       4
      </text>
      <text dy=".8em" transform="translate(957,1)">
       5
      </text>
     </g>
     <g font-family="Arial" font-size="20" space="preserve" transform="translate(957,32)">
      <text fill="black" text-anchor="end" dy=".4em">
       Random numbers
      </text>
     </g>
    </g>
    <g>
     <path d="M0,0v458M36,458H0M18,443H0M18,427H0M18,412H0M18,397H0M36,381H0M18,366H0M18,351H0M18,335H0M18,320H0M36,305H0M18,289H0M18,274H0M18,259H0M18,243H0M36,228H0M18,213H0M18,198H0M18,182H0M18,167H0M36,152H0M18,136H0M18,121H0M18,106H0M18,90H0M36,75H0M18,60H0M18,44H0M18,29H0M18,14H0" style="stroke: black; stroke-width: 1;"></path>
     <g font-family="Arial" font-size="20" space="preserve" fill="black" text-anchor="end">
      <text dy=".4em" transform="translate(-3,458)">
       0
      </text>
      <text dy=".4em" transform="translate(-3,381)">
       100
      </text>
      <text dy=".4em" transform="translate(-3,305)">
       200
      </text>
      <text dy=".4em" transform="translate(-3,228)">
       300
      </text>
      <text dy=".4em" transform="translate(-3,152)">
       400
      </text>
      <text dy=".4em" transform="translate(-3,75)">
       500
      </text>
     </g>
     <g font-family="Arial" font-size="20" space="preserve" transform="translate(-67)">
      <text fill="black" text-anchor="end" dy=".4em" transform="rotate(270)">
       Frequency
      </text>
     </g>
    </g>
   </g>
  </g>
  <g transform="translate(670,46)" font-family="Arial" font-size="19" space="preserve">
   <path d="M0,0H431V183H0Z" style="fill: white; stroke: black; stroke-width: 1;"></path>
   <text fill="black" text-anchor="start" dy=".4em" transform="translate(22,11)">
    Entries
   </text>
   <text fill="black" text-anchor="end" dy=".4em" transform="translate(409,11)">
    10000
   </text>
   <text fill="black" text-anchor="start" dy=".4em" transform="translate(22,34)">
    Mean
   </text>
   <text fill="black" text-anchor="end" dy=".4em" transform="translate(409,34)">
    -0.4938
   </text>
   <text fill="black" text-anchor="start" dy=".4em" transform="translate(22,57)">
    Std Dev
   </text>
   <text fill="black" text-anchor="end" dy=".4em" transform="translate(409,57)">
    0.7973
   </text>
   <g transform="translate(22,87)">
    <text fill="black" font-size="19">
     χ^2 / ndf
    </text>
   </g>
   <text fill="black" text-anchor="end" dy=".4em" transform="translate(409,80)">
    60.68 / 58
   </text>
   <text fill="black" text-anchor="start" dy=".4em" transform="translate(22,103)">
    Prob
   </text>
   <text fill="black" text-anchor="end" dy=".4em" transform="translate(409,103)">
    0.3793
   </text>
   <text fill="black" text-anchor="start" dy=".4em" transform="translate(22,126)">
    Constant
   </text>
   <g transform="translate(309,133)">
    <text fill="black" font-size="19" x="8">
     501.9 ± 6.2
    </text>
   </g>
   <text fill="black" text-anchor="start" dy=".4em" transform="translate(22,149)">
    Mean
   </text>
   <g transform="translate(261,156)">
    <text fill="black" font-size="19" x="8">
     -0.4919 ± 0.0079
    </text>
   </g>
   <text fill="black" text-anchor="start" dy=".4em" transform="translate(22,172)">
    Sigma
   </text>
   <g transform="translate(267,178)">
    <text fill="black" font-size="19" x="8">
     0.7902 ± 0.0056
    </text>
   </g>
  </g>
  <g transform="translate(179,86)" font-family="Arial" font-size="14" space="preserve">
   <path d="M0,0H275V86H0Z" style="fill: white; stroke: white; stroke-width: 1;"></path>
   <path d="M8,16H61" style="stroke: blue; stroke-width: 2;"></path>
   <text fill="black" text-anchor="start" dy=".4em" transform="translate(69,16)">
    Gaussian (//mu = -0.5)
   </text>
   <path d="M8,43H61" style="stroke: #9999cc; stroke-width: 3;"></path>
   <text fill="black" text-anchor="start" dy=".4em" transform="translate(69,43)">
    Fit with Gaussian to x
   </text>
   <path d="M8,70H61" style="stroke: red; stroke-width: 2;"></path>
   <text fill="black" text-anchor="start" dy=".4em" transform="translate(69,69)">
    Gaussian (//mu = +0.5)
   </text>
  </g>
  <g transform="translate(353,3)" font-family="Arial" font-size="25" space="preserve">
   <text fill="black" text-anchor="middle" dy=".4em" transform="translate(246,16)">
    Distribution of Gaussian numbers
   </text>
  </g>
 </g>
</svg>

<svg xmlns="http://www.w3.org/2000/svg" viewBox="0 0 1196 572" preserveAspectRatio="none" width="1196" height="572">
 <path d="M0,0H1196V572H0Z" style="fill: white;"></path>
 <g>
  <g transform="translate(120,57)">
   <path d="M0,0H957V458H0Z" style="fill: white; stroke: black; stroke-width: 1;"></path>
   <svg x="0" y="0" overflow="hidden" width="957" height="458" viewBox="0 0 957 458">
    <g>
     <path d="M115,457h10M120,456v2M153,457h10M158,456v2M163,457h10M168,456v2M172,457h10M177,456v2M182,455h10M187,453v3M191,455h10M196,453v3M201,453h10M206,452v3M211,455h10M216,453v3M220,446h10M225,443v6M230,447h10M235,444v6M239,440h10M244,436v7M249,442h10M254,438v7M258,411h10M263,405v12M268,401h10M273,394v13M278,401h10M283,395v13M287,384h10M292,377v15M297,381h10M302,373v15M306,343h10M311,334v18M316,324h10M321,314v20M325,286h10M330,275v23M335,278h10M340,266v24M345,250h10M350,238v25M354,225h10M359,212v26M364,186h10M369,172v28M373,150h10M378,135v30M383,112h10M388,95v33M392,117h10M397,101v32M402,99h10M407,82v33M412,103h10M417,87v33M421,40h10M426,22v36M431,95h10M436,78v34M440,93h10M445,77v33M450,93h10M455,77v33M459,108h10M464,92v32M469,117h10M474,101v32M479,168h10M484,154v29M488,165h10M493,150v30M498,209h10M503,195v28M507,230h10M512,217v27M517,266h10M522,254v25M526,282h10M531,270v23M536,330h10M541,320v20M545,345h10M550,335v19M555,383h10M560,375v16M565,388h10M570,380v15M574,403h10M579,396v13M584,414h10M589,408v11M593,426h10M598,421v10M603,428h10M608,423v10M612,441h10M617,438v7M622,439h10M627,435v8M632,441h10M637,438v7M641,450h10M646,448v5M651,455h10M656,453v3M660,455h10M665,453v3M670,456h10M675,454v3M679,456h10M684,454v3M689,456h10M694,455v3M699,457h10M704,456v2M708,457h10M713,456v2M756,457h10M761,456v2" style="stroke: blue; stroke-width: 2;"></path>
    </g>
    <g>
     <path d="M5,458L15,458L24,458L34,458L43,458L53,458L62,458L72,458L82,458L91,458L101,458L110,458L120,458L129,458L139,458L149,458L158,457L168,457L177,457L187,456L196,455L206,454L216,452L225,449L235,445L244,440L254,434L263,426L273,415L283,403L292,388L302,370L311,350L321,327L330,301L340,274L350,245L359,215L369,186L378,158L388,133L397,111L407,93L417,81L426,75L436,74L445,80L455,91L464,108L474,129L484,154L493,182L503,211L512,240L522,269L531,297L541,323L550,346L560,367L570,385L579,401L589,414L598,424L608,433L617,439L627,444L637,448L646,451L656,453L665,455L675,456L684,457L694,457L704,457L713,458L723,458L732,458L742,458L751,458L761,458L771,458L780,458L790,458L799,458L809,458L818,458L828,458L838,458L847,458L857,458L866,458L876,458L885,458L895,458L905,458L914,458L924,458L933,458L943,458L952,458" style="fill: none; stroke: #9999cc; stroke-width: 3;"></path>
    </g>
    <g>
     <path d="M0,458h48v-2h9v2h20v-1h9v1h10v-1h9v1h10v-2h9v1h10v-1h38v-1h10v-5h9v1h10v-1h10v-2h9v-2h10v-2h9v5h10v-17h9v6h10v-13h10v-1h9v-1h10v-7h9v-5h10v-20h9v-6h10v-8h10v-12h9v3h10v-18h9v8h10v-30h9v-11h10v2h10v-28h9v-20h10v-15h9v20h10v8h9v-33h10v-19h10v-14h9v19h10v-21h9v26h10v-18h9v-11h10v15h9v11h10v-11h10v13h9v14h10v2h19v7h9v16h10v4h10v19h9v-1h10v32h9v2h10v-11h9v17h10v15h10v11h9v21h10v5h9v9h10v7h9v7h10v-3h10v13h9v-3h10v15h9v-2h10v1h9v-1h10v10h10v4h9v1h10v4h9v-2h19v-2h10v3h10v2h9v-1h48" style="stroke-linejoin: miter; stroke: red; stroke-width: 2; fill: none;"></path>
    </g>
   </svg>
   <g>
    <g transform="translate(0,458)">
     <path d="M0,0h957M0,-17V0M19,-9V0M38,-9V0M57,-9V0M77,-9V0M96,-17V0M115,-9V0M134,-9V0M153,-9V0M172,-9V0M191,-17V0M211,-9V0M230,-9V0M249,-9V0M268,-9V0M287,-17V0M306,-9V0M325,-9V0M345,-9V0M364,-9V0M383,-17V0M402,-9V0M421,-9V0M440,-9V0M459,-9V0M479,-17V0M498,-9V0M517,-9V0M536,-9V0M555,-9V0M574,-17V0M593,-9V0M612,-9V0M632,-9V0M651,-9V0M670,-17V0M689,-9V0M708,-9V0M727,-9V0M746,-9V0M766,-17V0M785,-9V0M804,-9V0M823,-9V0M842,-9V0M861,-17V0M880,-9V0M900,-9V0M919,-9V0M938,-9V0M957,-17V0" style="stroke: black; stroke-width: 1;"></path>
     <g font-family="Arial" font-size="20" space="preserve" fill="black" text-anchor="middle">
      <text dy=".8em" transform="translate(0,1)">
       -5
      </text>
      <text dy=".8em" transform="translate(96,1)">
       -4
      </text>
      <text dy=".8em" transform="translate(191,1)">
       -3
      </text>
      <text dy=".8em" transform="translate(287,1)">
       -2
      </text>
      <text dy=".8em" transform="translate(383,1)">
       -1
      </text>
      <text dy=".8em" transform="translate(479,1)">
       0
      </text>
      <text dy=".8em" transform="translate(574,1)">
       1
      </text>
      <text dy=".8em" transform="translate(670,1)">
       2
      </text>
      <text dy=".8em" transform="translate(766,1)">
       3
      </text>
      <text dy=".8em" transform="translate(861,1)">
       4
      </text>
      <text dy=".8em" transform="translate(957,1)">
       5
      </text>
     </g>
     <g font-family="Arial" font-size="20" space="preserve" transform="translate(957,32)">
      <text fill="black" text-anchor="end" dy=".4em">
       Random numbers
      </text>
     </g>
    </g>
    <g>
     <path d="M0,0v458M36,458H0M18,443H0M18,427H0M18,412H0M18,397H0M36,381H0M18,366H0M18,351H0M18,335H0M18,320H0M36,305H0M18,289H0M18,274H0M18,259H0M18,243H0M36,228H0M18,213H0M18,198H0M18,182H0M18,167H0M36,152H0M18,136H0M18,121H0M18,106H0M18,90H0M36,75H0M18,60H0M18,44H0M18,29H0M18,14H0" style="stroke: black; stroke-width: 1;"></path>
     <g font-family="Arial" font-size="20" space="preserve" fill="black" text-anchor="end">
      <text dy=".4em" transform="translate(-3,458)">
       0
      </text>
      <text dy=".4em" transform="translate(-3,381)">
       100
      </text>
      <text dy=".4em" transform="translate(-3,305)">
       200
      </text>
      <text dy=".4em" transform="translate(-3,228)">
       300
      </text>
      <text dy=".4em" transform="translate(-3,152)">
       400
      </text>
      <text dy=".4em" transform="translate(-3,75)">
       500
      </text>
     </g>
     <g font-family="Arial" font-size="20" space="preserve" transform="translate(-67)">
      <text fill="black" text-anchor="end" dy=".4em" transform="rotate(270)">
       Frequency
      </text>
     </g>
    </g>
   </g>
  </g>
  <g transform="translate(670,46)" font-family="Arial" font-size="19" space="preserve">
   <path d="M0,0H431V183H0Z" style="fill: white; stroke: black; stroke-width: 1;"></path>
   <text fill="black" text-anchor="start" dy=".4em" transform="translate(22,11)">
    Entries
   </text>
   <text fill="black" text-anchor="end" dy=".4em" transform="translate(409,11)">
    10000
   </text>
   <text fill="black" text-anchor="start" dy=".4em" transform="translate(22,34)">
    Mean
   </text>
   <text fill="black" text-anchor="end" dy=".4em" transform="translate(409,34)">
    -0.4938
   </text>
   <text fill="black" text-anchor="start" dy=".4em" transform="translate(22,57)">
    Std Dev
   </text>
   <text fill="black" text-anchor="end" dy=".4em" transform="translate(409,57)">
    0.7973
   </text>
   <g transform="translate(22,87)">
    <text fill="black" font-size="19">
     χ^2 / ndf
    </text>
   </g>
   <text fill="black" text-anchor="end" dy=".4em" transform="translate(409,80)">
    60.68 / 58
   </text>
   <text fill="black" text-anchor="start" dy=".4em" transform="translate(22,103)">
    Prob
   </text>
   <text fill="black" text-anchor="end" dy=".4em" transform="translate(409,103)">
    0.3793
   </text>
   <text fill="black" text-anchor="start" dy=".4em" transform="translate(22,126)">
    Constant
   </text>
   <g transform="translate(309,133)">
    <text fill="black" font-size="19" x="8">
     501.9 ± 6.2
    </text>
   </g>
   <text fill="black" text-anchor="start" dy=".4em" transform="translate(22,149)">
    Mean
   </text>
   <g transform="translate(261,156)">
    <text fill="black" font-size="19" x="8">
     -0.4919 ± 0.0079
    </text>
   </g>
   <text fill="black" text-anchor="start" dy=".4em" transform="translate(22,172)">
    Sigma
   </text>
   <g transform="translate(267,178)">
    <text fill="black" font-size="19" x="8">
     0.7902 ± 0.0056
    </text>
   </g>
  </g>
  <g transform="translate(179,86)" font-family="Arial" font-size="14" space="preserve">
   <path d="M0,0H275V86H0Z" style="fill: white; stroke: white; stroke-width: 1;"></path>
   <path d="M8,16H61" style="stroke: blue; stroke-width: 2;"></path>
   <text fill="black" text-anchor="start" dy=".4em" transform="translate(69,16)">
    Gaussian (//mu = -0.5)
   </text>
   <path d="M8,43H61" style="stroke: #9999cc; stroke-width: 3;"></path>
   <text fill="black" text-anchor="start" dy=".4em" transform="translate(69,43)">
    Fit with Gaussian to x
   </text>
   <path d="M8,70H61" style="stroke: red; stroke-width: 2;"></path>
   <text fill="black" text-anchor="start" dy=".4em" transform="translate(69,69)">
    Gaussian (//mu = +0.5)
   </text>
  </g>
  <g transform="translate(353,3)" font-family="Arial" font-size="25" space="preserve">
   <text fill="black" text-anchor="middle" dy=".4em" transform="translate(246,16)">
    Distribution of Gaussian numbers
   </text>
  </g>
 </g>
</svg>
